svgs/sharp-duotone-regular/gem.svg

<svg xmlns="http://www.w3.org/2000/svg" viewBox="0 0 512 512"><!--! Font Awesome Pro 7.1.0 by @fontawesome - https://fontawesome.com License - https://fontawesome.com/license (Commercial License) Copyright 2025 Fonticons, Inc. --><path opacity=".4" fill="currentColor" d="M77.3 176L200.5 176 127 97.9 77.3 176zM81 224l175 186 175-186-350 0zM176 80l80 85 80-85-160 0zm135.5 96l123.2 0-49.7-78.1-73.5 78.1z"/><path fill="currentColor" d="M289 445l-33 35-33-35-223-237 112-176 288 0 112 176-223 237zM431 224L81 224 256 410 431 224zm3.7-48L385 97.9 311.5 176 434.7 176zM336 80l-160 0 80 85 80-85zM127 97.9L77.3 176 200.5 176 127 97.9z"/></svg>

<svg xmlns="http://www.w3.org/2000/svg" viewBox="0 0 512 512"><!--! Font Awesome Pro 6.7.2 by @fontawesome - https://fontawesome.com License - https://fontawesome.com/license (Commercial License) Copyright 2024 Fonticons, Inc. --><defs><style>.fa-secondary{opacity:.4}</style></defs><path class="fa-secondary" d="M77.3 176l123.2 0L127 97.9 77.3 176zM81 224L256 410 431 224l-175 0L81 224zM176 80l80 85 80-85L176 80zm135.5 96l123.2 0L385 97.9 311.5 176z"/><path class="fa-primary" d="M289 445l-33 35-33-35L0 208 112 32l288 0L512 208 289 445zM431 224l-175 0L81 224 256 410 431 224zm3.7-48L385 97.9 311.5 176l123.2 0zM336 80L176 80l80 85 80-85zM127 97.9L77.3 176l123.2 0L127 97.9z"/></svg>
